!!!COM: Palestrina, Giovanni Perluigi da
!!!OPR: Regina coeli (1601)
!!!OTL: Agnus I
**kern	**kern	**kern	**kern
*Ibass	*Itenor	*Icalto	*Icant
!Bassus	!Tenor	!Altus	!Cantus
*clefF4	*clefGv2	*clefG2	*clefG2
*k[b-]	*k[b-]	*k[b-]	*k[b-]
*F:ion	*F:ion	*F:ion	*F:ion
*M4/2	*M4/2	*M4/2	*M4/2
=1	=1	=1	=1
0r	1F	0r	0r
.	1G	.	.
=2	=2	=2	=2
0r	1.F	1c	0r
.	.	1d	.
.	2G	.	.
=3	=3	=3	=3
0r	4A	1c	1r
.	4B-	.	.
.	4c	.	.
.	4A	.	.
.	4B-	1d	1f
.	4c	.	.
.	2d	.	.
=4	=4	=4	=4
0r	2c	2e	1g
.	4G	4d	.
.	4A	4c	.
.	4B-	4d	1f
.	4c	4e	.
.	2d	[2f	.
=5	=5	=5	=5
1r	1c	2f]	1g
.	.	2e	.
1F	2r	2.f	1a
.	2c	.	.
.	.	4e	.
=6	=6	=6	=6
1G	2B-	2d	2r
.	2.d	2B-	1b-
1F	.	1f	.
.	4c	.	.
.	[2c	.	2a
=7	=7	=7	=7
1G	2c]	1d	2.g
.	2B-	.	.
.	.	.	4f
1A	1c	2r	4e
.	.	.	4d
.	.	[2c	2e
=8	=8	=8	=8
1F	2r	4c]	1a
.	.	4B-	.
.	1c	2A	.
2E	.	2G	1r
2D	2B-	[2F	.
=9	=9	=9	=9
1F	2A	4F]	0r
.	.	4G	.
.	2.d	2A	.
2E	.	1G	.
.	4c	.	.
2C	[2c	.	.
=10	=10	=10	=10
1D	2c]	2F	0r
.	2B	1f	.
1C	2c	.	.
.	4G	2e	.
.	4A	.	.
=11	=11	=11	=11
0r	4B-	2d	1b-
.	4c	.	.
.	4d	2.f	.
.	4B-	.	.
.	2.c	.	2a
.	.	4e	.
.	.	4e	2g
.	8B-	8d	.
.	8A	8c	.
=12	=12	=12	=12
1r	4G	2d	1b-
.	4F	.	.
.	2G	2B-	.
2r	1F	[1c	2a
2F	.	.	2f
=13	=13	=13	=13
2E	2r	2c]	2g
2D	1B-	2d	2.f
1F	.	[1c	.
.	.	.	4e
.	2A	.	4c
.	.	.	4d
=14	=14	=14	=14
2E	1G	1c]	4e
.	.	.	4f
2C	.	.	2g
2D	1B-	2r	2f
2E	.	2G	[2g
=15	=15	=15	=15
2F	2A	2A	4g]
.	.	.	4f
2D	2F	2B-	1f
1C	1G	1c	.
.	.	.	2e
=16	=16	=16	=16
0FF	0A	1c	2f
.	.	.	2f
.	.	2r	1cc
.	.	2c	.
=17	=17	=17	=17
0r	0r	1f	2cc
.	.	.	2dd
.	.	2f	2cc
.	.	2g	2b-
=18	=18	=18	=18
0r	0r	2f	2a
.	.	2e	2g
.	.	4d	2a
.	.	4c	.
.	.	4B-	[2b-
.	.	4c	.
=19	=19	=19	=19
1r	2r	4d	4b-]
.	.	4c	4a
.	2F	1f	1a
1C	1c	.	.
.	.	2e	2g
=20	=20	=20	=20
1F	2c	1f	1a
.	2d	.	.
2F	2c	1r	1r
2G	2B-	.	.
=21	=21	=21	=21
2F	2A	0r	0r
2E	2G	.	.
2.D	2A	.	.
.	[2B-	.	.
4BB-	.	.	.
=22	=22	=22	=22
2C	4B-]	2r	0r
.	4A	.	.
2D	1A	1f	.
1BB-	.	.	.
.	2G	2d	.
=23	=23	=23	=23
1AA	1A	2f	2r
.	.	4e	1cc
.	.	4d	.
1r	1r	2c	.
.	.	2d	2a
=24	=24	=24	=24
0r	2r	2e	2cc
.	1B-	2f	2.dd
.	.	2d	.
.	.	.	4cc
.	2G	[2g	4b-
.	.	.	4a
=25	=25	=25	=25
0r	2B-	4g]	1g
.	.	4f	.
.	2c	2e	.
.	1F	2d	1f
.	.	[2c	.
=26	=26	=26	=26
1r	1G	2c]	2.d
.	.	2B-	.
.	.	.	4e
[1F	2A	2c	4f
.	.	.	4e
.	2d	2F	4f
.	.	.	4g
=27	=27	=27	=27
2F]	2c	2r	2a
2D	2B-	1f	2dd
2F	2A	.	2cc
2G	2d	2d	2b-
=28	=28	=28	=28
1C	2.c	1e	2a
.	.	.	2.g
.	4B-	.	.
1D	2A	2d	.
.	.	.	4f
.	4G	2B-	[2f
.	4F	.	.
=29	=29	=29	=29
1C	1G	1c	2f]
.	.	.	2e
[1FF	1F	2r	[1f
.	.	[2c	.
=30	=30	=30	=30
1FF]	2r	2c]	1f]
.	1F	2A	.
1r	.	2c	2r
.	2D	2d	[2f
=31	=31	=31	=31
0r	2F	2A	2f]
.	2G	2B-	2d
.	2A	2c	2f
.	2B-	[2d	2g
=32	=32	=32	=32
0r	1A	2d]	1c
.	.	1c	.
.	1G	.	1d
.	.	2B	.
=33	=33	=33	=33
1.F	1A	1c	2c
.	.	.	1cc
.	[1d	2r	.
2D	.	[2f	2b-
=34	=34	=34	=34
2F	2d]	2f]	2a
2G	2B-	2d	2b-
1C	1c	1e-	1g
=35	=35	=35	=35
2.D	2A	1d	1f
.	1B-	.	.
4E	.	.	.
1F	.	1c	2r
.	2A	.	[2f
=36	=36	=36	=36
2.BB-	1B-	2d	2f]
.	.	1f	2d
4C	.	.	.
2D	2r	.	1f
2BB-	[2B-	2d	.
=37	=37	=37	=37
1E-	2B-]	2.B-	1g
.	2G	.	.
.	.	4c	.
2D	2B-	2d	2f
2C	2c	2G	2e-
=38	=38	=38	=38
2BB-	1F	1B-	2d
2D	.	.	1f
1C	1G	1c	.
.	.	.	2e
=39	=39	=39	=39
0FF	0F	0c	0f
==	==	==	==
*-	*-	*-	*-
!!!CDT: 1525/^1526/-1594/2/2
!!!OCY: Italia
!!!AGN: Mass (Paraphrase)
!!!AST: renaissance, vocal
!!!ASW: Antiphon
!!!PWK: Masses, Book 12
!!!RNB: Cadence finals: C
!!!YOR: Le Opere Complete, v. 29, p. 1
!!!YOO: Rome, Italy: Fratelli Scalera
!!!END: 1992//
!!!EED: John Miller
!!!YEC: Copyright 2000, John Miller
!!!YEN: United States of America
!!!YEM: Rights to all derivative electronic formats reserved.
!!!YEM: Refer to licensing agreement for further details.
!!!YEM: This file must be accompanied by the licensing agreement.
!!!YEM: A copy of the licensing agreement may be found at http://www.music-cog.ohio-state.edu/HumdrumDatabases/Palestrina/license.txt
!!!EMD: converted to Humdrum by Bret Aarden
